X:35
T:Captain Kinlock's Reel (From Parry's Lyrist no. 1)
B:Preston's Twenty four COUNTRY DANCES for the Year 1801
L:1/8
M:2/4
O:England
Z:Richard Robinson 
%%Dancenotes:Hands across __ back again. down the middle, up again & foot it out.
%%Page:4
%%TUNEURL: http://www.leeds.ac.uk/music/Info/RRTuneBk/gettune/00001188.html
%%ID:00001188
K:Bb
{Bc}d2 cB | (G<B) (F<B) | {Bc}d2 cB | (Acec) |\
{Bc}d2 cB | (G<B) (F<B) | (df)(cd) | B2 z2 ::
b2 fd | egbg | (fd)cB | (ec)BA | \
B2FD | EGce | dB cA | B2 z2 ::
